X:1
T:[ID 1-70]
T:[ID 1-70]
T:Bezeichnung standardisiert: Menuett Men:
T:Urheber unbekannt Datum in der hier transkribierten schriftlichen Quelle: vermutlich vor 1767
C:Urheber unbekannt
C:Datum in der hier transkribierten schriftlichen Quelle: vermutlich vor 1767
L:1/8
M:3/4
K:D
V:1 treble 
V:1
 DFAd fa | (3Ace g2 f2 | DFAd fa | Aceg f2 | GBdg b2 | FAdf a2 | (3fed (3d'c'b (3agf |{f} e6 :: %8
 A,CEAce |"^[sic]" EGBd c2 | A,CEAce |"^[sic]" EGBd c2 | GBdg b2 | FAdf a2 | %14
 a>d'(3c'/b/a/ g/f/d'/e/ |{e} d6 :| %16

